X: 20241
M: C
L: 1/16
K: D
V: 1 staves=3
(B2A2)(F2A2) (A2G2)(G2F2) | E4 E3E E4 D3F |\
|: A2A2 |\
d2AA A2A2 e2AA A2A2 | d2AA e2AA f2AA A2A2 |\
g2AA A2A2 f2AA A2A2 |
(ef)(ed) (cd)(cB) (AB)AG (3(FED) (3(EFG) |\
V: 2
z4 |\
|: A4 |\
d2AA A2A2 c2A2 A2A2 | d2AA c2AA d2AA A2A2 | e2AA A2A2 d2AA A2A2 | (cd)(cB) ABAG FGFE (3(DCB,) (3(CDE) |\
V: 3 clef=bass middle=d
z4 |\
d4 d3d d4 z4 | G4 G3G G4 z4 | f4 f4 e4 e4 | [A4C4] [A3C3][AC] [A4C4] z4 |\
d4 d3d d4 z4 | G4 G3G G4 z4 | f4 g4 a4 A4 | d4 d3d d4 :|
|: z4 |\
d4 d4 A4 A4 | d4 A4 A4 A4 | [g4B4] A4 [d4A4] A4 | z16 |\
d4 d3d d4 z4 | G4 G3G G4 z4 | f4 g4 a4 A4 | d4 d3d d4 :|


